!!!COM: Claude Goudimel
!!!OMD: Psalm 124: Or peut bien dire Israel
**kern	**kern	**kern	**kern
*part4	*part3	*part2	*part1
*staff4	*staff3	*staff2	*staff1
*I"bassus	*I"tenor	*I"contra	*I"superius
*clefC4	*clefC3	*clefC2	*clefG2
!!LO:TX:omd:t=
*M2/2	*M2/2	*M2/2	*M2/2
*met(c|)	*met(c|)	*met(c|)	*met(c|)
=1	=1	=1	=1
1c	1c	1g	1cc
=2	=2	=2	=2
2G	2d	2g	2b
2c	2e	2g	2cc
=3	=3	=3	=3
1F	1f	1a	1cc
=4	=4	=4	=4
1c	1e	1g	1cc
=5	=5	=5	=5
2G	2d	2g	2b
2A	2c	2e	2a
=6	=6	=6	=6
2F	2c	2f	2a
2G	2B	2d	2g
=7	=7	=7	=7
1C	1c	1e	1g
=8	=8	=8	=8
1r	1r	1r	1r
=9	=9	=9	=9
1c	1e	1g	1cc
=10	=10	=10	=10
2A	2f	2a	2cc
2G	2g	2b	2ee
=11	=11	=11	=11
1F	1a	1cc	1ff
=12	=12	=12	=12
1c	1g	1cc	1ee
=13	=13	=13	=13
2F	2f	2a	2cc
2C	2e	2g	2cc
=14	=14	=14	=14
1G	1d	1g	1b
=15	=15	=15	=15
1C	1c	1e	1g
=16	=16	=16	=16
1G	1B	1d	1g
=17	=17	=17	=17
1r	1r	1r	1r
=18	=18	=18	=18
1C	1G	1c	1e
=19	=19	=19	=19
2C	2c	2e	2g
2C	2c	2e	2g
=20	=20	=20	=20
1G	1B	1d	1g
=21	=21	=21	=21
1A	1c	1c	1e
=22	=22	=22	=22
2G	2d	2B	2g
[2F	[2f	[2c	[2a
=23	=23	=23	=23
2F]	2f]	2c]	2a]
2C	[2e	2c	2g
=24	=24	=24	=24
1F	2e]	1A	1a
.	2d	.	.
=25	=25	=25	=25
1E	1e	1B	1g#X
=26	=26	=26	=26
1r	1r	1r	1r
=27	=27	=27	=27
1c	1g	1e	1cc
=28	=28	=28	=28
2c	2g	2e	2cc
2F	2f	2a	2cc
=29	=29	=29	=29
1c	1e	1g	1cc
=30	=30	=30	=30
1G	1d	1g	1b
=31	=31	=31	=31
2c	2e	2g	2cc
2e	2g	2g	2cc
=32	=32	=32	=32
2d	2g	2a	2dd
2d	2f#X	2a	2dd
=33	=33	=33	=33
1G	1g	1b	1dd
=34	=34	=34	=34
1r	1r	1r	1r
=35	=35	=35	=35
1c	1e	1g	1cc
=36	=36	=36	=36
2G	2d	2g	2b
2A	2c	2e	2a
=37	=37	=37	=37
1E	1B	1e	1g
=38	=38	=38	=38
1A	1c	1e	1a
=39	=39	=39	=39
2G	2d	2g	2b
2D	2f	2a	[2dd
=40	=40	=40	=40
1E	1e	1g	2dd]
.	.	.	[2cc
=41	=41	=41	=41
1G	1d	1g	2cc]
.	.	.	2b
=42	=42	=42	=42
1C;	1c;	1g;	1cc;
==	==	==	==
*-	*-	*-	*-
!!!software: music21 v.9.7.1
!!!software: music21 v.9.1.0
!!!RDF**kern: > = above
!!!RDF**kern: < = below
